X: 3883
T: Black Shepherdess, The
R: reel
M: 4/4
K: Adorian
|:B|A2ag f2ef|efg2 dBBd|abag f2ef|gedB A2A:|
|:g|f2A2 fede|g2dB GBdg|f2Af e2de|gedB A2A:|

